svg/600/outlined/editor_choice-fill.svg

<svg xmlns="http://www.w3.org/2000/svg" width="48" height="48" viewBox="0 -960 960 960"><path d="M240.391-23.043v-362.783L110.695-594.522l185.218-300.174h368.174l185.218 300.174-129.696 208.696v362.783L480-103.434 240.391-23.043Zm99.261-791.87L203.305-594.522l136.347 219.826h280.696l136.347-219.826-136.347-220.391H339.652Zm100.044 368.826-128-127 50.913-50.914 77.087 77.087L596.26-703.913l51.479 49.348-208.043 208.478Z"/></svg>

<svg xmlns="http://www.w3.org/2000/svg" width="48" height="48" viewBox="0 -960 960 960"><path d="M240.39-23.04v-362.79L110.7-594.52 295.91-894.7h368.18L849.3-594.52 719.61-385.83v362.79L480-103.43 240.39-23.04Zm99.26-791.87L203.3-594.52 339.65-374.7h280.7L756.7-594.52 620.35-814.91h-280.7ZM439.7-446.09l-128-127L362.61-624l77.09 77.09 156.56-157 51.48 49.34L439.7-446.09Z"/></svg>
